packages/icons/src/components/Logo/assets/light/prometheus.svg

<svg width="20" height="20" viewBox="0 0 20 20" fill="none" xmlns="http://www.w3.org/2000/svg">
<g >
<path d="M10.0003 0C4.47753 0 0 4.47696 0 9.99996C0 15.5227 4.47753 20 10.0003 20C15.5231 20 20.0005 15.5227 20.0005 9.99996C20.0005 4.47688 15.523 0 10.0003 0ZM10.0003 18.716C8.42903 18.716 7.15502 17.6664 7.15502 16.3719H12.8456C12.8456 17.6661 11.5717 18.716 10.0003 18.716V18.716ZM14.6999 15.5956H5.30028V13.8911H14.7V15.5955H14.6999V15.5956ZM14.6661 13.0139H5.32708C5.29599 12.9781 5.26427 12.9428 5.23427 12.9065C4.27213 11.7382 4.04549 11.1283 3.82548 10.5068C3.82173 10.4863 4.99215 10.7458 5.82209 10.9326C5.82209 10.9326 6.24913 11.0314 6.87352 11.1452C6.27406 10.4425 5.91803 9.54925 5.91803 8.63611C5.91803 6.63154 7.45557 4.87986 6.90087 3.46405C7.44073 3.50796 8.01808 4.60337 8.05715 6.31606C8.63107 5.52292 8.87123 4.07461 8.87123 3.18663C8.87123 2.26715 9.4771 1.19909 10.0831 1.1626C9.54289 2.05293 10.223 2.81615 10.8277 4.70955C11.0544 5.42073 11.0255 6.61763 11.2005 7.37663C11.2586 5.80019 11.5297 3.49999 12.5298 2.70591C12.0886 3.70593 12.5951 4.95736 12.9415 5.55894C13.5004 6.52958 13.8392 7.26491 13.8392 8.65572C13.8392 9.58824 13.4949 10.4661 12.9141 11.1525C13.5745 11.0286 14.0305 10.9169 14.0305 10.9169L16.1751 10.4985C16.1752 10.4983 15.8636 11.7798 14.6661 13.0139V13.0139Z" fill="#DA4E31"/>
</g>
<defs>
<clipPath id="clip0_341_645">
<rect width="20" height="20" fill="white"/>
</clipPath>
</defs>
</svg>

<svg xmlns="http://www.w3.org/2000/svg" width="20" height="20" fill="none" viewBox="0 0 20 20">
    <path fill="#da4e31" d="M10 0C4.478 0 0 4.477 0 10s4.478 10 10 10 10-4.477 10-10S15.523 0 10 0m0 18.716c-1.571 0-2.845-1.05-2.845-2.344h5.69c0 1.294-1.273 2.344-2.845 2.344m4.7-3.12H5.3V13.89h9.4zm-.034-2.582H5.327l-.093-.107c-.962-1.169-1.189-1.779-1.409-2.4-.003-.02 1.167.239 1.997.426 0 0 .427.098 1.052.212-.6-.702-.956-1.596-.956-2.509 0-2.004 1.538-3.756.983-5.172.54.044 1.117 1.14 1.156 2.852.574-.793.814-2.241.814-3.13 0-.919.606-1.987 1.212-2.023-.54.89.14 1.653.745 3.547.226.71.197 1.908.373 2.667.058-1.577.329-3.877 1.329-4.671-.441 1 .065 2.251.412 2.853.558.97.897 1.706.897 3.097 0 .932-.344 1.81-.925 2.496.66-.123 1.117-.235 1.117-.235l2.144-.418s-.311 1.28-1.509 2.515"/>
</svg>
